public/images/logo.svg

<svg width="216" height="36" viewBox="0 0 216 36" fill="none" xmlns="http://www.w3.org/2000/svg">
<path d="M17.5976 36L8.53538 16.7095C8.51782 16.6627 8.49147 16.6003 8.45635 16.5223C8.42122 16.4287 8.37732 16.3039 8.32463 16.1478C8.32463 16.2883 8.32463 16.4131 8.32463 16.5223C8.32463 16.6315 8.32463 16.7095 8.32463 16.7563V32.7637H0V0H8.48269L16.9127 18.2942C17.1059 18.6374 17.2727 18.9651 17.4132 19.2771C17.5537 19.5736 17.6855 19.9012 17.8084 20.26C17.9489 19.9012 18.0806 19.5579 18.2035 19.2303C18.344 18.9027 18.4933 18.5906 18.6514 18.2942L27.3975 0H35.1426V32.7637H26.818V16.7095C26.818 16.6159 26.818 16.5145 26.818 16.4053C26.818 16.2961 26.818 16.2103 26.818 16.1478C26.7653 16.2415 26.7126 16.3351 26.6599 16.4287C26.6248 16.5067 26.5896 16.5691 26.5545 16.6159L17.5976 36Z" fill="#0B80C5"/>
<path d="M53.8266 33.3254C50.6829 33.3254 47.9344 32.8105 45.581 31.7808C43.2452 30.7355 41.4363 29.2299 40.1542 27.2641C38.8721 25.2983 38.2311 22.919 38.2311 20.1263V0H46.5557V20.1263C46.5557 22.3886 47.1441 23.9643 48.3208 24.8536C49.4975 25.7273 51.3327 26.1642 53.8266 26.1642C55.4072 26.1642 56.7332 25.9848 57.8045 25.6259C58.8758 25.2515 59.6837 24.6274 60.2282 23.7537C60.7726 22.8644 61.0448 21.6553 61.0448 20.1263V0H69.3694V20.1263C69.3694 22.5758 68.9216 24.643 68.0259 26.328C67.1302 28.013 65.9272 29.3704 64.4168 30.4001C62.924 31.4298 61.2556 32.1787 59.4115 32.6467C57.5674 33.0992 55.7058 33.3254 53.8266 33.3254Z" fill="#0B80C5"/>
<path d="M72.4098 32.7637V0H100.019V7.0208H80.7344V12.3566H93.9665V19.3774H80.7344V25.6961H100.387V32.7637H72.4098Z" fill="#0B80C5"/>
<path d="M103.267 32.7637V0H111.591V25.6025H126.499V32.7637H103.267Z" fill="#0B80C5"/>
<path d="M128.583 32.7637V0H136.908V25.6025H151.815V32.7637H128.583Z" fill="#0B80C5"/>
<path d="M153.899 32.7637V0H181.508V7.0208H162.224V12.3566H175.456V19.3774H162.224V25.6961H181.877V32.7637H153.899Z" fill="#0B80C5"/>
<path d="M184.756 32.7637V0H203.039C206.183 0 208.676 0.491457 210.521 1.47437C212.365 2.44168 213.682 3.73663 214.472 5.35921C215.28 6.9818 215.684 8.7526 215.684 10.6716C215.684 11.873 215.429 13.1133 214.92 14.3926C214.411 15.6564 213.664 16.8187 212.681 17.8796C211.715 18.925 210.538 19.7207 209.151 20.2667L216 32.7637H206.674L200.088 21.4368H193.081V32.7637H184.756ZM193.081 14.4629H203.144C204.128 14.4629 204.901 14.2912 205.463 13.948C206.042 13.5892 206.446 13.1211 206.674 12.5438C206.92 11.9666 207.043 11.3425 207.043 10.6716C207.043 10.0475 206.929 9.45468 206.701 8.89302C206.472 8.33135 206.068 7.8711 205.489 7.51226C204.927 7.15342 204.145 6.974 203.144 6.974H193.081V14.4629Z" fill="#0B80C5"/>
</svg>

<svg xmlns="http://www.w3.org/2000/svg" width="216" height="36" fill="none"><path fill="#0B80C5" d="M17.598 36 8.535 16.71a3.346 3.346 0 0 0-.079-.188 12.404 12.404 0 0 1-.131-.374v16.616H0V0h8.483l8.43 18.294c.193.343.36.671.5.983.14.297.273.624.395.983.14-.359.273-.702.395-1.03.141-.327.29-.64.448-.936L27.398 0h7.745v32.764h-8.325V16.148l-.158.28a.999.999 0 0 1-.105.188L17.598 36ZM53.827 33.325c-3.144 0-5.893-.515-8.246-1.544-2.336-1.046-4.145-2.551-5.427-4.517-1.282-1.966-1.923-4.345-1.923-7.138V0h8.325v20.126c0 2.263.588 3.838 1.765 4.728 1.177.873 3.012 1.31 5.506 1.31 1.58 0 2.906-.18 3.977-.538 1.072-.375 1.88-.999 2.424-1.872.545-.89.817-2.099.817-3.628V0h8.324v20.126c0 2.45-.447 4.517-1.343 6.202-.896 1.685-2.099 3.042-3.61 4.072-1.492 1.03-3.16 1.779-5.005 2.247a23.353 23.353 0 0 1-5.584.678ZM72.41 32.764V0h27.609v7.02H80.734v5.337h13.233v7.02H80.733v6.32h19.653v7.067H72.41ZM103.267 32.764V0h8.324v25.602h14.908v7.162h-23.232ZM128.583 32.764V0h8.325v25.602h14.907v7.162h-23.232ZM153.899 32.764V0h27.609v7.02h-19.284v5.337h13.232v7.02h-13.232v6.32h19.653v7.067h-27.978ZM184.756 32.764V0h18.283c3.144 0 5.637.491 7.482 1.474 1.844.968 3.161 2.263 3.951 3.885.808 1.623 1.212 3.394 1.212 5.313 0 1.201-.255 2.441-.764 3.72-.509 1.264-1.256 2.427-2.239 3.488-.966 1.045-2.143 1.84-3.53 2.387L216 32.764h-9.326l-6.586-11.327h-7.007v11.327h-8.325Zm8.325-18.301h10.063c.984 0 1.757-.172 2.319-.515.579-.359.983-.827 1.211-1.404a4.725 4.725 0 0 0 .369-1.872c0-.625-.114-1.217-.342-1.779-.229-.562-.633-1.022-1.212-1.38-.562-.36-1.344-.539-2.345-.539h-10.063v7.489Z"/></svg>
